icons/desktop/16/svg/social-tracker-16.svg

<svg width="16" height="16" viewBox="0 0 16 16" fill="none" xmlns="http://www.w3.org/2000/svg">
<path d="M9.21484 3C10.3388 3.004 11.3941 3.05753 12.3721 3.14453C13.0231 3.20253 13.6094 3.55224 13.9404 4.11523C14.3423 4.79903 14.7467 5.60096 15.1025 6.51758C15.5335 7.62858 15.8027 8.68109 15.9688 9.62109C16.1777 10.8031 15.2917 11.8831 14.0947 11.9531C13.4958 11.9881 12.8678 12.005 12.2129 12C11.4319 11.994 10.693 11.9545 10 11.8945L9.99902 11.8955V14.8389C9.99902 15.4809 9.47891 16.001 8.83691 16.001C8.33602 16.0009 7.89241 15.6809 7.73438 15.2061L7.08105 13.2471C7.0261 13.0832 6.95134 12.9271 6.85645 12.7832L5.24902 10.3311V3.19824C6.44797 3.07425 7.77691 2.99501 9.21484 3Z" fill="black"/>
<path d="M2.5 2C2.67392 2 2.89081 2.00998 3.13867 2.04395C3.63067 2.11295 4 2.54011 4 3.03711V9.96289C4 10.4699 3.62306 10.89 3.12012 10.958C2.93012 10.984 2.722 11 2.5 11C2.32608 11 2.10919 10.99 1.86133 10.9561C1.36933 10.8871 1 10.4599 1 9.96289V3.03711C1 2.53015 1.37694 2.11004 1.87988 2.04199C2.06988 2.01599 2.278 2 2.5 2Z" fill="black"/>
</svg>

<!-- This Source Code Form is subject to the terms of the Mozilla Public
   - License, v. 2.0. If a copy of the MPL was not distributed with this
   - file, You can obtain one at http://mozilla.org/MPL/2.0/. -->
<svg xmlns="http://www.w3.org/2000/svg" width="16" height="16" fill="context-fill" fill-opacity="context-fill-opacity" viewBox="0 0 16 16">
    <path d="M9.215 3c1.124.004 2.18.058 3.157.145a2.01 2.01 0 0 1 1.568.97 16.6 16.6 0 0 1 2.029 5.506c.209 1.182-.677 2.262-1.874 2.332A28.5 28.5 0 0 1 10 11.895h-.001v2.944a1.162 1.162 0 0 1-2.265.367l-.653-1.959a2 2 0 0 0-.225-.464L5.25 10.331V3.198A37 37 0 0 1 9.215 3M2.5 2c.174 0 .39.01.639.044.492.069.861.496.861.993v6.926c0 .507-.377.927-.88.995a4.6 4.6 0 0 1-1.259-.002A1.006 1.006 0 0 1 1 9.963V3.037c0-.507.377-.927.88-.995q.286-.04.62-.042" />
</svg>
